src/icons/document.svg

<svg height="20" viewBox="0 0 20 20" width="20" xmlns="http://www.w3.org/2000/svg"><path d="m13 6c-.551 0-1-.448-1-1v-1.586l2.586 2.586zm2 10c0 .552-.449 1-1 1h-8c-.551 0-1-.448-1-1v-12c0-.552.449-1 1-1h4v2c0 1.654 1.346 3 3 3h2zm-3.829-15h-5.171c-1.654 0-3 1.346-3 3v12c0 1.654 1.346 3 3 3h8c1.654 0 3-1.346 3-3v-9.172c0-.801-.312-1.555-.879-2.121l-2.828-2.828a2.983 2.983 0 0 0 -2.122-.879z" fill="#c1cbd4" fill-rule="evenodd"/></svg>

<svg width="20" height="20" viewBox="0 0 20 20" xmlns="http://www.w3.org/2000/svg"><title>Document</title><path d="M13 6c-.551 0-1-.448-1-1V3.414L14.586 6H13zm2 10c0 .552-.449 1-1 1H6c-.551 0-1-.448-1-1V4c0-.552.449-1 1-1h4v2c0 1.654 1.346 3 3 3h2v8zM11.171 1H6C4.346 1 3 2.346 3 4v12c0 1.654 1.346 3 3 3h8c1.654 0 3-1.346 3-3V6.828c0-.801-.312-1.555-.879-2.121l-2.828-2.828A2.983 2.983 0 0 0 11.171 1z" fill="#C1CBD4" fill-rule="evenodd"/></svg>
